src/images/arqliteIcons/RecycleIcon.svg

<svg xmlns="http://www.w3.org/2000/svg" width="34" height="38" fill="none" xmlns:v="https://vecta.io/nano"><path d="M16.992 33.736c-2.064 0-4.008-.396-5.832-1.188-1.8-.768-3.384-1.836-4.752-3.204s-2.448-2.952-3.24-4.752c-.768-1.824-1.152-3.768-1.152-5.832s.384-3.996 1.152-5.796c.792-1.824 1.872-3.42 3.24-4.788S9.36 5.74 11.16 4.972c1.824-.792 3.768-1.188 5.832-1.188s3.996.396 5.796 1.188c1.824.768 3.42 1.836 4.788 3.204s2.436 2.964 3.204 4.788c.792 1.8 1.188 3.732 1.188 5.796s-.396 4.008-1.188 5.832c-.768 1.8-1.836 3.384-3.204 4.752s-2.964 2.436-4.788 3.204c-1.8.792-3.732 1.188-5.796 1.188zm-4.932-6.552h4.176v-4.14H9.828l2.196-3.78 1.62.936.252-.468-2.412-3.708-4.428-.288-.324.504 1.656.972-1.008 1.8a3.83 3.83 0 0 0-.288.648c-.048.216-.072.444-.072.684 0 .264.036.54.108.828.072.264.18.528.324.792L9.54 25.6c.264.456.624.84 1.08 1.152.456.288.936.432 1.44.432zm7.056 1.908h.576v-1.908h2.124a2.48 2.48 0 0 0 1.404-.432c.456-.288.816-.66 1.08-1.116l2.088-3.672c.144-.264.252-.528.324-.792.096-.288.144-.564.144-.828a2.15 2.15 0 0 0-.108-.684c-.048-.216-.132-.42-.252-.612l-2.052-3.636-3.6 2.088 3.168 5.544h-4.32v-1.908h-.576l-1.98 3.996 1.98 3.96zm-5.364-12.924l3.204-5.544 2.16 3.78-1.656.972.288.504 4.428-.288 2.448-3.708-.288-.468-1.656.936-1.044-1.872c-.24-.456-.6-.804-1.08-1.044-.456-.24-.96-.36-1.512-.36h-4.212c-.528 0-1.032.12-1.512.36s-.852.588-1.116 1.044l-2.052 3.636 3.6 2.052z" fill="#0091a6"/></svg>

<svg width="34" height="38" viewBox="0 0 34 38" fill="none" xmlns="http://www.w3.org/2000/svg">
<path d="M16.992 33.736C14.928 33.736 12.984 33.34 11.16 32.548C9.36 31.78 7.776 30.712 6.408 29.344C5.04 27.976 3.96 26.392 3.168 24.592C2.4 22.768 2.016 20.824 2.016 18.76C2.016 16.696 2.4 14.764 3.168 12.964C3.96 11.14 5.04 9.544 6.408 8.176C7.776 6.808 9.36 5.74 11.16 4.972C12.984 4.18 14.928 3.784 16.992 3.784C19.056 3.784 20.988 4.18 22.788 4.972C24.612 5.74 26.208 6.808 27.576 8.176C28.944 9.544 30.012 11.14 30.78 12.964C31.572 14.764 31.968 16.696 31.968 18.76C31.968 20.824 31.572 22.768 30.78 24.592C30.012 26.392 28.944 27.976 27.576 29.344C26.208 30.712 24.612 31.78 22.788 32.548C20.988 33.34 19.056 33.736 16.992 33.736ZM12.06 27.184H16.236V23.044H9.828L12.024 19.264L13.644 20.2L13.896 19.732L11.484 16.024L7.056 15.736L6.732 16.24L8.388 17.212L7.38 19.012C7.26 19.228 7.164 19.444 7.092 19.66C7.044 19.876 7.02 20.104 7.02 20.344C7.02 20.608 7.056 20.884 7.128 21.172C7.2 21.436 7.308 21.7 7.452 21.964L9.54 25.6C9.804 26.056 10.164 26.44 10.62 26.752C11.076 27.04 11.556 27.184 12.06 27.184ZM19.116 29.092H19.692V27.184H21.816C22.32 27.184 22.788 27.04 23.22 26.752C23.676 26.464 24.036 26.092 24.3 25.636L26.388 21.964C26.532 21.7 26.64 21.436 26.712 21.172C26.808 20.884 26.856 20.608 26.856 20.344C26.856 20.104 26.82 19.876 26.748 19.66C26.7 19.444 26.616 19.24 26.496 19.048L24.444 15.412L20.844 17.5L24.012 23.044H19.692V21.136H19.116L17.136 25.132L19.116 29.092ZM13.752 16.168L16.956 10.624L19.116 14.404L17.46 15.376L17.748 15.88L22.176 15.592L24.624 11.884L24.336 11.416L22.68 12.352L21.636 10.48C21.396 10.024 21.036 9.676 20.556 9.436C20.1 9.196 19.596 9.076 19.044 9.076H14.832C14.304 9.076 13.8 9.196 13.32 9.436C12.84 9.676 12.468 10.024 12.204 10.48L10.152 14.116L13.752 16.168Z" fill="#0091A6"/>
</svg>
